svgs/duotone/square-heart.svg

<svg xmlns="http://www.w3.org/2000/svg" viewBox="0 0 448 512"><!-- Font Awesome Pro 6.0.0-alpha2 by @fontawesome - https://fontawesome.com License - https://fontawesome.com/license (Commercial License) --><defs><style>.fa-secondary{opacity:.4}</style></defs><path d="M384 32H64C28.654 32 0 60.652 0 96V416C0 451.344 28.654 480 64 480H384C419.346 480 448 451.344 448 416V96C448 60.652 419.346 32 384 32ZM347.5 280.25L236.875 394.5C229.75 401.875 218.25 401.875 211 394.5L100.5 280.25C68.375 247.125 70.25 192.125 106.25 161.5C137.5 134.75 184.125 139.625 212.75 169.25L224.125 180.75L235.375 169.25C264.125 139.625 310.75 134.75 341.999 161.5C377.75 192.125 379.75 247.125 347.5 280.25Z" class="fa-secondary"/><path d="M347.752 280.25L237.127 394.5C230.002 401.875 218.502 401.875 211.252 394.5L100.752 280.25C68.627 247.125 70.502 192.125 106.502 161.5C137.752 134.75 184.377 139.625 213.002 169.25L224.377 180.75L235.627 169.25C264.377 139.625 311.002 134.75 342.251 161.5C378.002 192.125 380.002 247.125 347.752 280.25Z" class="fa-primary"/></svg>

<svg xmlns="http://www.w3.org/2000/svg" viewBox="0 0 448 512"><!--! Font Awesome Pro 6.0.0-alpha3 by @fontawesome - https://fontawesome.com License - https://fontawesome.com/license (Commercial License) --><defs><style>.fa-secondary{opacity:.4}</style></defs><path class="fa-primary" d="M347.5 280.3l-110.6 114.2c-7.125 7.375-18.72 7.375-25.97 0L100.5 280.3C68.37 247.1 70.25 192.1 106.3 161.5C137.5 134.8 184.1 139.6 212.7 169.2l11.34 11.53l11.25-11.53c28.75-29.62 75.47-34.43 106.7-7.68C377.8 192.2 379.7 247.1 347.5 280.3z"/><path class="fa-secondary" d="M384 32H64C28.65 32 0 60.65 0 96v320c0 35.34 28.65 64 64 64h320c35.35 0 64-28.66 64-64V96C448 60.65 419.3 32 384 32zM347.5 280.3l-110.6 114.2c-7.125 7.375-18.72 7.375-25.97 0L100.5 280.3C68.37 247.1 70.25 192.1 106.3 161.5C137.5 134.8 184.1 139.6 212.7 169.2l11.34 11.53l11.25-11.53c28.75-29.62 75.47-34.43 106.7-7.68C377.8 192.2 379.7 247.1 347.5 280.3z"/></svg>
